X:1
T:Title
%%score { 1 | 2 }
L:1/8
M:4/4
K:Ab
V:1 treble nm="Grand Piano"
V:2 bass 
V:1
 z4 z2[Q:1/4=100] [CE]2 | [CE]2 [CA]>[CA] [EA]2 [EB]>[A,EA] | [A,EG]2 [A,DF]4 [DFA]2 | %3
 [B,EG]2 [B,EG]>[B,EG] [B,=DB]2 [A,FA]>[A,DF] | [G,E]6 [G,DE]2 | [CE]2 [CA]>[CA] [Ec]2 [Fd]>[Ec] | %6
 [DB]2 [A,DF]4 [DFB]2 | G2 B>c d2 G>G |[M:3/4] [CEA]6 |[M:1/4] c>c | %10
[M:4/4] c2 [DFB]2 [CFA]2 [C=EG]>[CEG] | [CFA]2 [A,CF]4 [CFA]2 | %12
 [DFB]2 [DFB]>[DFB] [CFA]2 [B,=EG]>[B,EG] |[M:9/8] [A,F]6 [G,DE]3 | %14
[M:4/4] [CE]2 [CA]>[CA] [Ec]2 [Fd]>[Ec] | [DB]2 [A,DF]4 [DFB]>[DFB] | G2 B>c d2 G>G | %17
[M:3/4] [CEA]6 |] %18
V:2
 z4 z2 [A,,A,]2 | [A,,A,]2 [A,,E,]>[A,,E,] [C,A,]2 [C,A,]>C, | D,2 D,4 B,,2 | %3
 E,2 E,>E, B,,2 B,,>B,, | E,6 E,2 | [A,,A,]2 [A,,A,]>[A,,A,] [A,,A,]2 [A,,A,]>[A,,A,] | %6
 [D,F,]2 D,4 B,,2 | [E,B,E]2 [E,G,E]>[E,A,E] [E,B,E]2 [E,DE]>[E,DE] |[M:3/4] A,,6 | %9
[M:1/4] [A,E]>[G,B,E] |[M:4/4] [F,A,F]2 B,,2 C,2 C,>C, | F,2 F,4 F,2 | B,,2 B,,>B,, C,2 C,>C, | %13
[M:9/8] D,6 E,3 |[M:4/4] [A,,A,]2 [A,,A,]>[A,,A,] [A,,A,]2 [A,,A,]>[A,,A,] | [D,F,]2 D,4 B,,>B,, | %16
 [E,B,E]2 [E,G,E]>[E,A,E] [E,B,E]2 [E,DE]>[E,DE] |[M:3/4] A,,6 |] %18

